X: 23240
T: Leather Away The Wattle-O
R: polka
M: 2/4
K: Dmajor
A|:dA FA|de fe/f/|ed cd|ef gf/g/|
af g/f/e|dc AF|GB A/B/A/G/|1 FD D2:|2 FD De||
|:f2 fe/f/|g2 gf/e/|f2 fa|gf ef/g/|
af g/f/e|dc AF|GB A/B/A/G/|1 FD De:|2 FD D2||

